img/icon-jsfiddle.svg

<svg fill="none" height="24" viewBox="0 0 24 24" width="24" xmlns="http://www.w3.org/2000/svg"><g stroke="#fff" stroke-linecap="round" stroke-width="2"><path d="m3 12c0 4.97 4.03 9 9 9s9-4.03 9-9"/><path d="m21 12c0-4.97-4.03-9-9-9s-9 4.03-9 9" stroke-opacity=".6"/><path d="m7 12c0 2.21 1.79 4 4 4s4-1.79 4-4"/><path d="m17 12c0-2.21-1.79-4-4-4s-4 1.79-4 4"/></g></svg>

<svg width="24" height="24" viewBox="0 0 24 24" fill="none" xmlns="http://www.w3.org/2000/svg">
<path d="M3 12C3 16.97 7.03 21 12 21C16.97 21 21 16.97 21 12" stroke="white" stroke-width="2" stroke-linecap="round"/>
<path d="M21 12C21 7.03 16.97 3 12 3C7.03 3 3 7.03 3 12" stroke="white" stroke-width="2" stroke-linecap="round" stroke-opacity="0.6"/>
<path d="M7 12C7 14.21 8.79 16 11 16C13.21 16 15 14.21 15 12" stroke="white" stroke-width="2" stroke-linecap="round"/>
<path d="M17 12C17 9.79 15.21 8 13 8C10.79 8 9 9.79 9 12" stroke="white" stroke-width="2" stroke-linecap="round"/>
</svg>
